build/img/social__wh.svg

<svg width="30" height="30" viewBox="0 0 30 30" fill="none" xmlns="http://www.w3.org/2000/svg">
<path d="M29.25 15C29.25 22.8701 22.8701 29.25 15 29.25C7.12994 29.25 0.75 22.8701 0.75 15C0.75 7.12994 7.12994 0.75 15 0.75C22.8701 0.75 29.25 7.12994 29.25 15Z" stroke="white" stroke-width="1.5"/>
<path d="M15.5 7C11.3806 7 8 10.3806 8 14.5C8 15.8596 8.36655 17.1831 9.06167 18.341L8 22L11.659 20.9383C12.8169 21.6334 14.1404 22 15.5 22C19.6194 22 23 18.6194 23 14.5C23 10.3806 19.6194 7 15.5 7ZM20.1891 17.669L19.8402 18.0179C19.3465 18.5116 18.2111 18.4725 17.4815 18.3316C15.0557 17.8631 12.2276 15.1218 11.6821 12.7478C11.4121 11.5718 11.5612 10.5494 11.9512 10.1593L12.3001 9.81033C12.4927 9.61784 12.8056 9.61806 12.998 9.81033L14.3939 11.2064C14.4871 11.2995 14.5381 11.423 14.5381 11.5552C14.5381 11.6874 14.4871 11.811 14.3939 11.9038L14.0451 12.2531C13.6606 12.6385 13.6606 13.2646 14.0451 13.6491L16.3503 15.924C16.736 16.3097 17.3601 16.3101 17.7464 15.924L18.0953 15.5752C18.2754 15.394 18.6119 15.3934 18.7935 15.5752L20.1891 16.9708C20.3786 17.1595 20.3858 17.4721 20.1891 17.669Z" fill="white"/>
</svg>

<svg width="30" height="30" fill="none" xmlns="http://www.w3.org/2000/svg"><path d="M29.25 15c0 7.87-6.38 14.25-14.25 14.25S.75 22.87.75 15 7.13.75 15 .75 29.25 7.13 29.25 15z" stroke="#fff" stroke-width="1.5"/><path d="M15.5 7C11.38 7 8 10.38 8 14.5a7.45 7.45 0 001.062 3.841L8 22l3.659-1.062A7.45 7.45 0 0015.5 22c4.12 0 7.5-3.38 7.5-7.5S19.62 7 15.5 7zm4.69 10.669l-.35.349c-.494.494-1.629.454-2.358.314-2.426-.469-5.254-3.21-5.8-5.584-.27-1.176-.12-2.199.27-2.589l.348-.349a.494.494 0 01.698 0l1.396 1.396a.489.489 0 01.144.35.488.488 0 01-.144.348l-.349.35a.989.989 0 000 1.395l2.305 2.275a.987.987 0 001.396 0l.35-.349a.516.516 0 01.698 0l1.395 1.396a.493.493 0 010 .698z" fill="#fff"/></svg>
